X:142
T:The Roaring Barmaid
N:Lunasa Version - Otherworld titled "The Butlers of Glen Avenue"
M:6/8
L:1/8
K:G
GFG EGD|GFG EGD|DEG BGG|dGG  BAB|\
GFG EGD|GFG EGD|GAB deg|deg edB:|
|:deg b2b-|bab deg|b2 b2 ag|edB deg|\
b2 b2 ab|agg bgg|agg egg|deg edB:|
